src/assets/icons/services/premium-gas.svg

<?xml version="1.0" encoding="UTF-8" standalone="no"?>
<svg width="30px" height="30px" viewBox="0 0 30 30" version="1.1" xmlns="http://www.w3.org/2000/svg" xmlns:xlink="http://www.w3.org/1999/xlink">
    <!-- Generator: Sketch 50.2 (55047) - http://www.bohemiancoding.com/sketch -->
    <title>icons/30px/negative/premium-gas</title>
    <desc>Created with Sketch.</desc>
    <defs></defs>
    <g id="icons/30px/negative/premium-gas" stroke="none" stroke-width="1" fill="none" fill-rule="evenodd">
        <g id="Group" transform="translate(0.000000, 3.000000)" fill="#E0DED9">
            <path d="M28.4472656,23.8320312 C28.6816418,23.8320312 28.8867179,23.919921 29.0625,24.0957031 C29.2382821,24.2714853 29.3261719,24.4863269 29.3261719,24.7402344 C29.3261719,24.9746105 29.2382821,25.1845694 29.0625,25.3701172 C28.8867179,25.555665 28.6816418,25.6484375 28.4472656,25.6484375 L24.6972656,25.6484375 C24.4628895,25.6484375 24.2626961,25.555665 24.0966797,25.3701172 C23.9306632,25.1845694 23.8476562,24.9746105 23.8476562,24.7402344 C23.8476562,24.4863269 23.9306632,24.2714853 24.0966797,24.0957031 C24.2626961,23.919921 24.4628895,23.8320312 24.6972656,23.8320312 L28.4472656,23.8320312 Z M29.8242188,15.1015625 C29.8242188,16.6054763 29.2919975,17.8896431 28.2275391,18.9541016 C27.1630806,20.01856 25.8691482,20.5507812 24.3457031,20.5507812 C23.9355448,20.5507812 23.5351582,20.5068364 23.1445312,20.4189453 C22.7539043,20.3310542 22.3828143,20.1992196 22.03125,20.0234375 L22.03125,24.5644531 L22.0019531,24.59375 C22.0214845,24.6132813 22.03125,24.6328124 22.03125,24.6523438 L22.03125,24.7402344 C22.03125,24.9746105 21.948243,25.1845694 21.7822266,25.3701172 C21.6162101,25.555665 21.4062513,25.6484375 21.1523438,25.6484375 L1.0546875,25.6484375 C0.820311328,25.6484375 0.615235254,25.555665 0.439453125,25.3701172 C0.263670996,25.1845694 0.17578125,24.9746105 0.17578125,24.7402344 C0.17578125,24.4863269 0.263670996,24.2714853 0.439453125,24.0957031 C0.615235254,23.919921 0.820311328,23.8320312 1.0546875,23.8320312 L10.078125,23.8320312 L10.078125,17.7089844 C9.76562344,17.9238292 9.42382998,18.0849604 9.05273438,18.1923828 C8.68163877,18.2998052 8.29101768,18.3535156 7.88085938,18.3535156 C6.80663525,18.3535156 5.88379292,17.9726601 5.11230469,17.2109375 C4.34081646,16.4492149 3.95507813,15.5214898 3.95507813,14.4277344 C3.95507813,14.2519522 3.96972642,14.07129 3.99902344,13.8857422 C4.02832046,13.7001944 4.0624998,13.5195321 4.1015625,13.34375 C4.1015625,13.3242187 4.10644526,13.2949221 4.11621094,13.2558594 C4.12597661,13.2167967 4.1406249,13.1875001 4.16015625,13.1679688 L7.11914062,4.40820312 C7.19726602,4.232421 7.31445234,4.08593809 7.47070312,3.96875 C7.62695391,3.85156191 7.8027334,3.79296875 7.99804687,3.79296875 L10.2832031,3.79296875 C10.5957047,2.75780732 11.2158157,1.88379263 12.1435547,1.17089844 C13.0712937,0.458004248 14.1308534,0.1015625 15.3222656,0.1015625 L19.6582031,0.1015625 C20.2636749,0.1015625 20.8105444,0.350583447 21.2988281,0.848632812 C21.7871118,1.34668218 22.03125,1.89843447 22.03125,2.50390625 L22.03125,10.1796875 C22.3828143,10.0039054 22.7539043,9.87207075 23.1445312,9.78417969 C23.5351582,9.69628862 23.9355448,9.65234375 24.3457031,9.65234375 C25.8691482,9.65234375 27.1630806,10.184565 28.2275391,11.2490234 C29.2919975,12.3134819 29.8242188,13.5976487 29.8242188,15.1015625 Z M10.078125,5.63867188 L9.75585938,5.63867188 L8.73046875,8.48046875 C8.69140605,8.59765684 8.60839907,8.70019487 8.48144531,8.78808594 C8.35449155,8.875977 8.23242246,8.91992188 8.11523438,8.91992188 L7.52929688,8.91992188 L5.91796875,13.6074219 C5.91796875,13.6269532 5.91308599,13.651367 5.90332031,13.6806641 C5.89355464,13.7099611 5.88867188,13.7343749 5.88867188,13.7539062 C5.84960918,13.8710943 5.8203126,13.9833979 5.80078125,14.0908203 C5.7812499,14.1982427 5.77148438,14.3105463 5.77148438,14.4277344 C5.77148438,15.0136748 5.97656045,15.5117167 6.38671875,15.921875 C6.79687705,16.3320333 7.29491895,16.5371094 7.88085938,16.5371094 C8.4667998,16.5371094 8.97460723,16.3417988 9.40429688,15.9511719 C9.83398652,15.5605449 10.0585937,15.0917996 10.078125,14.5449219 L10.078125,5.63867188 Z M11.8945312,11.0292969 L20.1855469,11.0292969 L20.1855469,2.50390625 C20.1855469,2.40624951 20.1171882,2.28906318 19.9804688,2.15234375 C19.8437493,2.01562432 19.7363285,1.94726562 19.6582031,1.94726562 L15.3222656,1.94726562 C14.4042923,1.94726562 13.603519,2.26464526 12.9199219,2.89941406 C12.2363247,3.53418286 11.8945312,4.2812457 11.8945312,5.140625 L11.8945312,11.0292969 Z M28.9746094,15.1015625 C28.9746094,13.8320249 28.5253951,12.7431686 27.6269531,11.8349609 C26.7285111,10.9267533 25.6347721,10.4726562 24.3457031,10.4726562 C23.9355448,10.4726562 23.5302754,10.5312494 23.1298828,10.6484375 C22.7294902,10.7656256 22.3632829,10.921874 22.03125,11.1171875 C21.7773425,11.2734383 21.5380871,11.4492178 21.3134766,11.6445312 C21.0888661,11.8398447 20.8886728,12.0546863 20.7128906,12.2890625 L20.6835938,12.3183594 C20.6249997,12.3769534 20.5712893,12.4453121 20.5224609,12.5234375 C20.4736326,12.6015629 20.4296877,12.6699216 20.390625,12.7285156 C20.390625,12.748047 20.3857422,12.7626953 20.3759766,12.7724609 C20.3662109,12.7822266 20.3613281,12.7968749 20.3613281,12.8164062 C20.2636714,12.972657 20.1806644,13.1337882 20.1123047,13.2998047 C20.043945,13.4658211 19.980469,13.6464834 19.921875,13.8417969 C19.921875,13.8613282 19.9169922,13.8808593 19.9072266,13.9003906 C19.8974609,13.919922 19.8925781,13.939453 19.8925781,13.9589844 C19.8730468,14.0371098 19.8535157,14.1103512 19.8339844,14.1787109 C19.814453,14.2470707 19.8046875,14.3105466 19.8046875,14.3691406 C19.8046875,14.4082033 19.7998047,14.4374999 19.7900391,14.4570312 C19.7802734,14.4765626 19.7753906,14.5058592 19.7753906,14.5449219 C19.7558593,14.6230473 19.7460938,14.710937 19.7460938,14.8085938 L19.7460938,15.3945312 C19.7460938,15.492188 19.7558593,15.5800777 19.7753906,15.6582031 C19.7753906,15.6972658 19.7802734,15.7265624 19.7900391,15.7460938 C19.7998047,15.7656251 19.8046875,15.7949217 19.8046875,15.8339844 C19.8046875,15.8925784 19.814453,15.9560543 19.8339844,16.0244141 C19.8535157,16.0927738 19.8730468,16.1660152 19.8925781,16.2441406 C19.8925781,16.263672 19.8974609,16.283203 19.9072266,16.3027344 C19.9169922,16.3222657 19.921875,16.3417968 19.921875,16.3613281 C19.980469,16.5566416 20.043945,16.7373039 20.1123047,16.9033203 C20.1806644,17.0693368 20.2636714,17.230468 20.3613281,17.3867188 C20.3613281,17.4062501 20.3662109,17.4208984 20.3759766,17.4306641 C20.3857422,17.4404297 20.390625,17.455078 20.390625,17.4746094 C20.4296877,17.5332034 20.4736326,17.6015621 20.5224609,17.6796875 C20.5712893,17.7578129 20.6249997,17.8261716 20.6835938,17.8847656 L20.7128906,17.9140625 C20.8886728,18.1484387 21.0888661,18.3632803 21.3134766,18.5585938 C21.5380871,18.7539072 21.767577,18.9296867 22.0019531,19.0859375 C22.3535174,19.281251 22.7294902,19.4374994 23.1298828,19.5546875 C23.5302754,19.6718756 23.9355448,19.7304688 24.3457031,19.7304688 C25.6347721,19.7304688 26.7285111,19.2763717 27.6269531,18.3681641 C28.5253951,17.4599564 28.9746094,16.3711001 28.9746094,15.1015625 Z M24.4921875,12.2597656 L25.3417969,14.0175781 L27.2753906,14.28125 L25.8691406,15.6582031 L26.1914062,17.5625 L24.4921875,16.6542969 L22.7636719,17.5625 L23.0859375,15.6582031 L21.7089844,14.28125 L23.6132812,14.0175781 L24.4921875,12.2597656 Z" id=""></path>
        </g>
    </g>
</svg>

<?xml version="1.0" encoding="utf-8"?>
<!-- Generator: Adobe Illustrator 16.0.0, SVG Export Plug-In . SVG Version: 6.00 Build 0)  -->
<!DOCTYPE svg PUBLIC "-//W3C//DTD SVG 1.1//EN" "http://www.w3.org/Graphics/SVG/1.1/DTD/svg11.dtd">
<svg version="1.1" id="Layer_1" xmlns="http://www.w3.org/2000/svg" xmlns:xlink="http://www.w3.org/1999/xlink" x="0px" y="0px"
	 width="30px" height="30px" viewBox="0 0 30 30" enable-background="new 0 0 30 30" xml:space="preserve">
<circle fill="#004F7C" cx="24.377" cy="18.102" r="4.798"/>
<polygon fill="#FFBF0D" points="24.492,15.26 25.342,17.018 27.275,17.281 25.869,18.658 26.191,20.562 24.492,19.654 
	22.764,20.562 23.086,18.658 21.709,17.281 23.613,17.018 "/>
<title>icons/30px/negative/premium-gas</title>
<desc>Created with Sketch.</desc>
<g id="icons_x2F_30px_x2F_negative_x2F_premium-gas">
	<g id="Group" transform="translate(0.000000, 3.000000)">
		<path id="_xE922_" fill="#E0DED9" d="M28.447,23.832c0.234,0,0.439,0.088,0.615,0.264s0.264,0.391,0.264,0.645
			c0,0.234-0.088,0.444-0.264,0.63s-0.381,0.278-0.615,0.278h-3.75c-0.234,0-0.435-0.093-0.601-0.278s-0.249-0.396-0.249-0.63
			c0-0.254,0.083-0.469,0.249-0.645s0.366-0.264,0.601-0.264H28.447z M29.824,15.102c0,1.504-0.532,2.788-1.597,3.853
			s-2.358,1.597-3.882,1.597c-0.41,0-0.811-0.044-1.201-0.132s-0.762-0.22-1.113-0.396v4.541l-0.029,0.029
			c0.02,0.02,0.029,0.039,0.029,0.059v0.088c0,0.234-0.083,0.444-0.249,0.63s-0.376,0.278-0.63,0.278H1.055
			c-0.234,0-0.439-0.093-0.615-0.278s-0.264-0.396-0.264-0.63c0-0.254,0.088-0.469,0.264-0.645s0.381-0.264,0.615-0.264h9.023
			v-6.123c-0.312,0.215-0.654,0.376-1.025,0.483s-0.762,0.161-1.172,0.161c-1.074,0-1.997-0.381-2.769-1.143
			s-1.157-1.689-1.157-2.783c0-0.176,0.015-0.356,0.044-0.542s0.063-0.366,0.103-0.542c0-0.02,0.005-0.049,0.015-0.088
			s0.024-0.068,0.044-0.088l2.959-8.76c0.078-0.176,0.195-0.322,0.352-0.439s0.332-0.176,0.527-0.176h2.285
			c0.312-1.035,0.933-1.909,1.86-2.622s1.987-1.069,3.179-1.069h4.336c0.605,0,1.152,0.249,1.641,0.747s0.732,1.05,0.732,1.655
			v7.676c0.352-0.176,0.723-0.308,1.113-0.396s0.791-0.132,1.201-0.132c1.523,0,2.817,0.532,3.882,1.597
			S29.824,13.598,29.824,15.102z M10.078,5.639H9.756L8.73,8.48C8.691,8.598,8.608,8.7,8.481,8.788S8.232,8.92,8.115,8.92H7.529
			l-1.611,4.688c0,0.02-0.005,0.044-0.015,0.073s-0.015,0.054-0.015,0.073c-0.039,0.117-0.068,0.229-0.088,0.337
			s-0.029,0.22-0.029,0.337c0,0.586,0.205,1.084,0.615,1.494s0.908,0.615,1.494,0.615s1.094-0.195,1.523-0.586
			s0.654-0.859,0.674-1.406V5.639z M11.895,11.029h8.291V2.504c0-0.098-0.068-0.215-0.205-0.352s-0.244-0.205-0.322-0.205h-4.336
			c-0.918,0-1.719,0.317-2.402,0.952s-1.025,1.382-1.025,2.241V11.029z M28.975,15.102c0-1.27-0.449-2.358-1.348-3.267
			s-1.992-1.362-3.281-1.362c-0.41,0-0.815,0.059-1.216,0.176s-0.767,0.273-1.099,0.469c-0.254,0.156-0.493,0.332-0.718,0.527
			s-0.425,0.41-0.601,0.645l-0.029,0.029c-0.059,0.059-0.112,0.127-0.161,0.205s-0.093,0.146-0.132,0.205
			c0,0.02-0.005,0.034-0.015,0.044s-0.015,0.024-0.015,0.044c-0.098,0.156-0.181,0.317-0.249,0.483s-0.132,0.347-0.19,0.542
			c0,0.02-0.005,0.039-0.015,0.059s-0.015,0.039-0.015,0.059c-0.02,0.078-0.039,0.151-0.059,0.22s-0.029,0.132-0.029,0.19
			c0,0.039-0.005,0.068-0.015,0.088s-0.015,0.049-0.015,0.088c-0.02,0.078-0.029,0.166-0.029,0.264v0.586
			c0,0.098,0.01,0.186,0.029,0.264c0,0.039,0.005,0.068,0.015,0.088s0.015,0.049,0.015,0.088c0,0.059,0.01,0.122,0.029,0.19
			s0.039,0.142,0.059,0.22c0,0.02,0.005,0.039,0.015,0.059s0.015,0.039,0.015,0.059c0.059,0.195,0.122,0.376,0.19,0.542
			s0.151,0.327,0.249,0.483c0,0.02,0.005,0.034,0.015,0.044s0.015,0.024,0.015,0.044c0.039,0.059,0.083,0.127,0.132,0.205
			s0.103,0.146,0.161,0.205l0.029,0.029c0.176,0.234,0.376,0.449,0.601,0.645s0.454,0.371,0.688,0.527
			c0.352,0.195,0.728,0.352,1.128,0.469s0.806,0.176,1.216,0.176c1.289,0,2.383-0.454,3.281-1.362S28.975,16.371,28.975,15.102z"/>
	</g>
</g>
</svg>
